dist/assets/icons/icon/and.svg

<svg width="230" height="248" viewBox="0 0 230 248" fill="none" xmlns="http://www.w3.org/2000/svg"><path d="m200.382 247.104-28.728-26.676c-22.8 17.784-49.476 26.676-80.028 26.676-17.328 0-32.946-2.736-46.854-8.208-13.908-5.7-24.852-13.566-32.832-23.598C4.188 205.266.312 193.98.312 181.44c0-14.82 4.104-27.816 12.312-38.988 8.436-11.4 21.888-22.23 40.356-32.49-8.664-8.892-14.934-17.328-18.81-25.308-3.876-8.208-5.814-16.644-5.814-25.308 0-11.628 3.078-21.888 9.234-30.78 6.156-8.892 14.82-15.732 25.992-20.52 11.4-5.016 24.51-7.524 39.33-7.524 20.748 0 37.392 5.016 49.932 15.048 12.54 9.804 18.81 23.142 18.81 40.014 0 12.312-3.762 23.256-11.286 32.832-7.296 9.576-19.152 18.81-35.568 27.702l43.776 40.698c5.244-10.944 9.234-23.37 11.97-37.278l42.75 13.338c-4.56 21.204-11.856 39.33-21.888 54.378l28.044 25.992-29.07 33.858Zm-97.47-210.33c-7.98 0-14.364 2.052-19.152 6.156-4.56 4.104-6.84 9.348-6.84 15.732 0 4.788 1.254 9.348 3.762 13.68 2.508 4.104 7.41 9.69 14.706 16.758 11.628-6.156 19.722-11.628 24.282-16.416 4.56-5.016 6.84-10.374 6.84-16.074 0-5.928-2.052-10.716-6.156-14.364-4.104-3.648-9.918-5.472-17.442-5.472ZM95.388 205.38c16.644 0 31.578-4.674 44.802-14.022l-57.798-54.036c-10.716 6.156-18.354 12.198-22.914 18.126-4.56 5.928-6.84 12.654-6.84 20.178 0 8.892 3.876 16.074 11.628 21.546 7.752 5.472 18.126 8.208 31.122 8.208Z" fill="#F2DDFD"/></svg>

<svg width="230" height="248" viewBox="0 0 230 248" fill="none" xmlns="http://www.w3.org/2000/svg">
<path d="M200.382 247.104L171.654 220.428C148.854 238.212 122.178 247.104 91.626 247.104C74.298 247.104 58.68 244.368 44.772 238.896C30.864 233.196 19.92 225.33 11.94 215.298C4.188 205.266 0.312001 193.98 0.312001 181.44C0.312001 166.62 4.416 153.624 12.624 142.452C21.06 131.052 34.512 120.222 52.98 109.962C44.316 101.07 38.046 92.634 34.17 84.654C30.294 76.446 28.356 68.01 28.356 59.346C28.356 47.718 31.434 37.458 37.59 28.566C43.746 19.674 52.41 12.834 63.582 8.04599C74.982 3.02998 88.092 0.521983 102.912 0.521983C123.66 0.521983 140.304 5.53799 152.844 15.57C165.384 25.374 171.654 38.712 171.654 55.584C171.654 67.896 167.892 78.84 160.368 88.416C153.072 97.992 141.216 107.226 124.8 116.118L168.576 156.816C173.82 145.872 177.81 133.446 180.546 119.538L223.296 132.876C218.736 154.08 211.44 172.206 201.408 187.254L229.452 213.246L200.382 247.104ZM102.912 36.774C94.932 36.774 88.548 38.826 83.76 42.93C79.2 47.034 76.92 52.278 76.92 58.662C76.92 63.45 78.174 68.01 80.682 72.342C83.19 76.446 88.092 82.032 95.388 89.1C107.016 82.944 115.11 77.472 119.67 72.684C124.23 67.668 126.51 62.31 126.51 56.61C126.51 50.682 124.458 45.894 120.354 42.246C116.25 38.598 110.436 36.774 102.912 36.774ZM95.388 205.38C112.032 205.38 126.966 200.706 140.19 191.358L82.392 137.322C71.676 143.478 64.038 149.52 59.478 155.448C54.918 161.376 52.638 168.102 52.638 175.626C52.638 184.518 56.514 191.7 64.266 197.172C72.018 202.644 82.392 205.38 95.388 205.38Z" fill="#F2DDFD"/>
</svg>
